X: 29536
T: Noble Squire Dacre
R: waltz
M: 3/4
K: Gmajor
|:B2~BA G2|G2 D2 G2|G2~GA B2|A2~A2 G2|
c2~cB A2|AE~E2 A2|c2~c2 e2|e2~ef G2|
B2~BA G2|G2 D2 G2|G2~GA B2|A2~A2 G2|
c2 e2 c2|d2~de f2|g2 d2 B2|A2~A2 G2:|A2~AG A2||
|:B2 GA BG|d2 GA BG|B2 GA BG|d2 GA BG|
c2 AB cA|e2 AB cA|c2 AB cA|e2 f2 g2|
B2 GA BG|d2 GA BG|b2 GA BG|d2 GA BG|
c2~ce c2|d2~de f2|g2 d2 B2|A2~AG A:|A2~A2~A2||

